X: 41607
T: Up Downey
R: reel
M: 4/4
K: Eminor
EFGA B2 eB|BAAB AFGF|EFGA B2 ef|gfed faaa|
EFGA B2 zA|BAGB AFGF|EFGA B2 ef|gefd ~e3z:|
gfe gfe (gf|e) gfe ~a3 f|gfe gfe (gf|e) gfd ~B3f|
gfe gfe (gf|e) gfe ~a3 z|baab agfg|egfd e3 f|
gfe gfe (gf|e) gfe ~a3 z|baab agfg|egfd B3f|
gfe gfe (gf|e) gfe ~a3 z|baab agfg|egfd e4||
w: Ending
gfe f2e (gf|e) f2e a2 a2|gfe f2e (gf|e) f2d B2 B2|
gfe f2e (gf|e) f2e a2 a2|bag a2g fg|ABcd e4||

